img/social-icon/instagram.svg

<svg width="111" height="110" viewBox="0 0 111 110" fill="none" xmlns="http://www.w3.org/2000/svg">
<g id="ri:instagram-fill">
<path id="Vector" d="M60.2054 9.17019C63.55 9.15736 66.8946 9.19097 70.2383 9.27102L71.1274 9.30311C72.1541 9.33977 73.167 9.38561 74.3908 9.44061C79.2674 9.66977 82.5949 10.4398 85.5145 11.5719C88.5395 12.736 91.0879 14.3127 93.6362 16.861C95.9662 19.1509 97.7696 21.9208 98.9208 24.9781C100.053 27.8977 100.823 31.2298 101.052 36.1064C101.107 37.3256 101.153 38.3431 101.19 39.3698L101.217 40.2589C101.298 43.6011 101.334 46.9442 101.322 50.2873L101.327 53.7064V59.7106C101.338 63.0552 101.303 66.3999 101.222 69.7435L101.194 70.6327C101.157 71.6594 101.112 72.6723 101.057 73.896C100.827 78.7727 100.048 82.1002 98.9208 85.0198C97.7733 88.0803 95.9696 90.8525 93.6362 93.1414C91.3444 95.4712 88.573 97.2745 85.5145 98.426C82.5949 99.5581 79.2674 100.328 74.3908 100.557C73.167 100.612 72.1541 100.658 71.1274 100.695L70.2383 100.722C66.8946 100.804 63.55 100.839 60.2054 100.828L56.7862 100.832H50.7866C47.442 100.844 44.0974 100.808 40.7537 100.727L39.8645 100.699C38.7765 100.66 37.6887 100.614 36.6012 100.562C31.7245 100.333 28.397 99.5535 25.4729 98.426C22.4143 97.2772 19.6439 95.4735 17.3558 93.1414C15.0231 90.8511 13.2181 88.0794 12.0666 85.0198C10.9345 82.1002 10.1645 78.7727 9.93536 73.896C9.88431 72.8085 9.83848 71.7207 9.79786 70.6327L9.77494 69.7435C9.69044 66.3999 9.65224 63.0553 9.66036 59.7106V50.2873C9.64757 46.9442 9.68118 43.6011 9.76119 40.2589L9.79328 39.3698C9.82994 38.3431 9.87578 37.3256 9.93078 36.1064C10.1599 31.2252 10.9299 27.9023 12.062 24.9781C13.2142 21.9193 15.0227 19.1501 17.3604 16.8656C19.647 14.5316 22.4156 12.7249 25.4729 11.5719C28.397 10.4398 31.7199 9.66977 36.6012 9.44061L39.8645 9.30311L40.7537 9.28019C44.0958 9.19573 47.4389 9.15753 50.782 9.16561L60.2054 9.17019ZM55.4937 32.0869C52.4573 32.0439 49.4426 32.6049 46.6248 33.7372C43.8071 34.8694 41.2425 36.5505 39.0801 38.6825C36.9176 40.8146 35.2005 43.3552 34.0285 46.1566C32.8565 48.958 32.2529 51.9645 32.2529 55.0012C32.2529 58.038 32.8565 61.0444 34.0285 63.8459C35.2005 66.6473 36.9176 69.1879 39.0801 71.3199C41.2425 73.452 43.8071 75.133 46.6248 76.2653C49.4426 77.3976 52.4573 77.9585 55.4937 77.9156C61.5716 77.9156 67.4005 75.5012 71.6982 71.2035C75.9959 66.9058 78.4104 61.0768 78.4104 54.9989C78.4104 48.9211 75.9959 43.0921 71.6982 38.7944C67.4005 34.4967 61.5716 32.0869 55.4937 32.0869ZM55.4937 41.2535C57.3202 41.2199 59.1351 41.5505 60.8323 42.2261C62.5296 42.9018 64.0752 43.9088 65.3789 45.1885C66.6826 46.4682 67.7182 47.9948 68.4253 49.6793C69.1324 51.3637 69.4967 53.1721 69.497 54.9989C69.4973 56.8257 69.1336 58.6342 68.4271 60.3189C67.7206 62.0035 66.6855 63.5305 65.3822 64.8106C64.0789 66.0908 62.5336 67.0983 60.8366 67.7745C59.1396 68.4507 57.3248 68.782 55.4983 68.7489C51.8516 68.7489 48.3542 67.3003 45.7756 64.7217C43.1969 62.143 41.7483 58.6457 41.7483 54.9989C41.7483 51.3522 43.1969 47.8548 45.7756 45.2762C48.3542 42.6976 51.8516 41.2489 55.4983 41.2489L55.4937 41.2535ZM79.5562 25.2119C78.0776 25.271 76.6792 25.9 75.654 26.9671C74.6287 28.0342 74.0561 29.4566 74.0561 30.9364C74.0561 32.4162 74.6287 33.8386 75.654 34.9057C76.6792 35.9728 78.0776 36.6018 79.5562 36.661C81.0757 36.661 82.5329 36.0574 83.6073 34.983C84.6818 33.9086 85.2854 32.4513 85.2854 30.9319C85.2854 29.4124 84.6818 27.9552 83.6073 26.8807C82.5329 25.8063 81.0757 25.2027 79.5562 25.2027V25.2119Z" fill="white"/>
</g>
</svg>

<svg width="111" height="110" viewBox="0 0 111 110" fill="none" xmlns="http://www.w3.org/2000/svg"><g id="ri:instagram-fill"><path id="Vector" d="M60.205 9.17c3.345-.013 6.69.021 10.033.101l.89.032c1.026.037 2.039.083 3.263.138 4.876.229 8.204.999 11.123 2.13 3.026 1.165 5.574 2.742 8.122 5.29a22.496 22.496 0 015.285 8.117c1.132 2.92 1.902 6.252 2.131 11.128.055 1.22.101 2.237.138 3.264l.027.889c.081 3.342.117 6.685.105 10.028l.005 3.42v6.004c.011 3.344-.024 6.689-.105 10.032l-.028.89c-.037 1.026-.082 2.04-.137 3.263-.23 4.877-1.009 8.204-2.136 11.124a22.385 22.385 0 01-5.285 8.121 22.526 22.526 0 01-8.121 5.285c-2.92 1.132-6.248 1.902-11.124 2.131-1.224.055-2.237.101-3.264.138l-.889.027c-3.343.082-6.688.117-10.033.106l-3.419.004h-6c-3.344.012-6.689-.024-10.032-.105l-.89-.028a273.338 273.338 0 01-3.263-.137c-4.877-.229-8.204-1.008-11.128-2.136a22.411 22.411 0 01-8.117-5.285 22.477 22.477 0 01-5.29-8.121c-1.132-2.92-1.902-6.247-2.13-11.124a340.557 340.557 0 01-.138-3.263l-.023-.89a362.305 362.305 0 01-.115-10.032v-9.424c-.012-3.343.021-6.686.101-10.028l.032-.89c.037-1.026.083-2.043.138-3.263.229-4.88.999-8.204 2.131-11.128a22.367 22.367 0 015.298-8.112 22.444 22.444 0 018.113-5.294C28.397 10.44 31.72 9.67 36.6 9.44l3.264-.138.889-.023a362.29 362.29 0 0110.028-.114l9.423.004zm-4.711 22.917a22.916 22.916 0 100 45.829 22.917 22.917 0 0016.204-39.122 22.912 22.912 0 00-16.204-6.707zm0 9.166a13.751 13.751 0 11.004 27.496 13.75 13.75 0 110-27.5l-.004.005zm24.062-16.041a5.729 5.729 0 000 11.449 5.73 5.73 0 100-11.458v.009z" fill="#fff"/></g></svg>
